frontend/src/assets/krav.svg

<svg width="88" height="88" viewBox="0 0 88 88" fill="none" xmlns="http://www.w3.org/2000/svg">
<circle cx="43.7255" cy="43.7255" r="43.7255" fill="#95227D"/>
<path d="M28.25 28.25C28.25 26.8576 28.8031 25.5223 29.7877 24.5377C30.7723 23.5531 32.1076 23 33.5 23H54.5C55.8924 23 57.2277 23.5531 58.2123 24.5377C59.1969 25.5223 59.75 26.8576 59.75 28.25V59.75C59.75 61.1424 59.1969 62.4777 58.2123 63.4623C57.2277 64.4469 55.8924 65 54.5 65H33.5C32.1076 65 30.7723 64.4469 29.7877 63.4623C28.8031 62.4777 28.25 61.1424 28.25 59.75V28.25ZM54.5 25.625H33.5C32.8038 25.625 32.1361 25.9016 31.6438 26.3938C31.1516 26.8861 30.875 27.5538 30.875 28.25V59.75C30.875 60.4462 31.1516 61.1139 31.6438 61.6062C32.1361 62.0984 32.8038 62.375 33.5 62.375H54.5C55.1962 62.375 55.8639 62.0984 56.3562 61.6062C56.8484 61.1139 57.125 60.4462 57.125 59.75V28.25C57.125 27.5538 56.8484 26.8861 56.3562 26.3938C55.8639 25.9016 55.1962 25.625 54.5 25.625Z" fill="white"/>
<path fill-rule="evenodd" clip-rule="evenodd" d="M49.8716 45.1835C49.8515 44.8664 49.7958 44.5613 49.7087 44.2668C49.6216 43.9722 49.503 43.688 49.3572 43.4126C49.2114 43.1372 49.0383 42.8705 48.8421 42.6108C48.646 42.3511 48.4267 42.0984 48.1886 41.8509C47.9504 41.6035 47.6934 41.3613 47.4215 41.1227C47.1497 40.8841 46.8632 40.649 46.5661 40.4158C46.269 40.1826 45.9613 39.9512 45.6472 39.7199C45.3331 39.4886 45.0126 39.2574 44.6899 39.0247C44.6407 38.9891 44.5913 38.9534 44.5418 38.9176C44.4922 38.8818 44.4426 38.8459 44.3927 38.8098C44.3429 38.7737 44.2928 38.7375 44.2426 38.7011C44.1923 38.6647 44.1419 38.628 44.0911 38.5912C44.0404 38.5543 43.9895 38.5172 43.9382 38.4798C43.887 38.4424 43.8354 38.4048 43.7836 38.3668C43.7317 38.3288 43.6796 38.2905 43.6271 38.2518C43.5746 38.2131 43.5217 38.1741 43.4684 38.1347C43.2815 38.0024 43.1114 37.8674 42.9572 37.7311C42.803 37.5948 42.6647 37.457 42.5417 37.3192C42.4186 37.1813 42.3107 37.0433 42.2171 36.9065C42.1236 36.7697 42.0445 36.634 41.9789 36.5007C41.9133 36.3674 41.8614 36.2366 41.8222 36.1094C41.783 35.9823 41.7567 35.8588 41.7423 35.7403C41.7279 35.6217 41.7256 35.5082 41.7345 35.4008C41.7434 35.2935 41.7635 35.1924 41.794 35.0988C41.825 35.0037 41.8662 34.9137 41.9173 34.8292C41.9685 34.7447 42.0295 34.6656 42.1 34.5921C42.1705 34.5186 42.2505 34.4507 42.3397 34.3885C42.4289 34.3264 42.5272 34.27 42.6343 34.2197C42.7414 34.1693 42.8573 34.1249 42.9816 34.0867C43.1059 34.0484 43.2387 34.0164 43.3794 33.9907C43.5202 33.965 43.6691 33.9456 43.8256 33.9328C43.9822 33.92 44.1464 33.9137 44.3179 33.9142C44.6124 33.9238 44.8705 33.9634 45.0967 34.0252C45.3229 34.087 45.5172 34.1711 45.6841 34.2699C45.851 34.3687 45.9905 34.4822 46.1071 34.6029C46.2237 34.7235 46.3174 34.8513 46.3927 34.9786C46.4681 35.106 46.525 35.2328 46.5679 35.3517C46.6109 35.4705 46.64 35.5813 46.6597 35.6766C46.6794 35.7718 46.6896 35.8514 46.695 35.9078C46.7003 35.9642 46.7007 35.9974 46.7007 35.9999H49.2149C49.2149 35.7852 49.1944 35.5541 49.1518 35.3139C49.1091 35.0736 49.0443 34.8242 48.9554 34.5728C48.8666 34.3215 48.7537 34.0682 48.6151 33.8202C48.4764 33.5722 48.312 33.3295 48.12 33.0993C47.928 32.8692 47.7084 32.6515 47.4595 32.4536C47.2105 32.2557 46.9322 32.0776 46.6228 31.9264C46.3133 31.7753 45.9728 31.6511 45.5992 31.5612C45.2257 31.4712 44.8193 31.4155 44.3781 31.4013C44.3727 31.4013 44.3674 31.4012 44.362 31.4012C44.3566 31.4012 44.3513 31.4011 44.3459 31.4011C44.3405 31.401 44.3352 31.4009 44.3298 31.4009C44.3245 31.4008 44.3191 31.4007 44.3138 31.4006C44.3085 31.4006 44.3031 31.4005 44.2978 31.4004C44.2925 31.4003 44.2872 31.4 44.2819 31.4C44.2767 31.4 44.2714 31.4 44.2661 31.4C44.2609 31.4 44.2556 31.4 44.2504 31.4C43.9454 31.4 43.6502 31.417 43.3661 31.4502C43.0819 31.4835 42.8088 31.533 42.5478 31.5982C42.2868 31.6634 42.038 31.7443 41.8024 31.8401C41.5668 31.9359 41.3445 32.0467 41.1366 32.1719C40.9287 32.297 40.7351 32.4365 40.5571 32.5896C40.3791 32.7428 40.2166 32.9096 40.0707 33.0894C39.9248 33.2692 39.7955 33.4621 39.684 33.6673C39.5725 33.8725 39.4787 34.09 39.4039 34.3193C39.3507 34.4822 39.309 34.6473 39.2785 34.8139C39.248 34.9805 39.2286 35.1486 39.2201 35.3177C39.2116 35.4868 39.2139 35.6568 39.2267 35.8273C39.2396 35.9977 39.2629 36.1685 39.2965 36.3391C39.3301 36.5097 39.3739 36.6801 39.4275 36.8498C39.4812 37.0194 39.5447 37.1883 39.6179 37.3559C39.691 37.5234 39.7737 37.6896 39.8657 37.8539C39.9576 38.0182 40.0589 38.1806 40.169 38.3404C39.9866 38.5305 39.8164 38.7194 39.6585 38.9074C39.5006 39.0953 39.3549 39.2822 39.2215 39.4683C39.088 39.6543 38.9667 39.8395 38.8576 40.0239C38.7485 40.2083 38.6515 40.392 38.5667 40.5751C38.4819 40.7581 38.4092 40.9406 38.3486 41.1225C38.288 41.3045 38.2394 41.486 38.203 41.6671C38.1665 41.8482 38.142 42.0289 38.1296 42.2094C38.1172 42.39 38.1168 42.5703 38.1284 42.7504C38.1485 43.0676 38.2042 43.3726 38.2913 43.6672C38.3784 43.9618 38.497 44.2459 38.6428 44.5214C38.7886 44.7968 38.9617 45.0635 39.1579 45.3232C39.354 45.5829 39.5733 45.8356 39.8114 46.0831C40.0496 46.3305 40.3066 46.5727 40.5784 46.8113C40.8503 47.0499 41.1368 47.285 41.4339 47.5182C41.731 47.7514 42.0387 47.9828 42.3528 48.2141C42.6669 48.4454 42.9874 48.6765 43.3101 48.9093C43.3593 48.9449 43.4087 48.9806 43.4582 49.0164C43.5078 49.0522 43.5574 49.0881 43.6073 49.1242C43.6571 49.1602 43.7072 49.1965 43.7574 49.2329C43.8077 49.2693 43.8581 49.306 43.9088 49.3428C43.9596 49.3797 44.0105 49.4168 44.0618 49.4542C44.113 49.4916 44.1646 49.5292 44.2164 49.5672C44.2682 49.6052 44.3204 49.6435 44.3729 49.6822C44.4254 49.7209 44.4783 49.7599 44.5315 49.7993C44.7185 49.9316 44.8886 50.0665 45.0428 50.2029C45.197 50.3392 45.3353 50.477 45.4583 50.6148C45.5814 50.7527 45.6893 50.8906 45.7828 51.0275C45.8764 51.1643 45.9555 51.3 46.0211 51.4333C46.0867 51.5665 46.1386 51.6974 46.1778 51.8246C46.217 51.9517 46.2433 52.0752 46.2577 52.1937C46.272 52.3123 46.2744 52.4258 46.2655 52.5332C46.2566 52.6405 46.2365 52.7416 46.206 52.8352C46.175 52.9303 46.1337 53.0204 46.0824 53.1052C46.0311 53.1899 45.9699 53.2694 45.8992 53.3433C45.8284 53.4172 45.7481 53.4855 45.6587 53.5481C45.5693 53.6106 45.4707 53.6673 45.3634 53.718C45.2561 53.7687 45.1401 53.8133 45.0157 53.8516C44.8913 53.89 44.7586 53.922 44.618 53.9475C44.4773 53.9729 44.3287 53.9919 44.1726 54.004C44.0165 54.0162 43.8528 54.0215 43.682 54.0198C43.3877 54.0102 43.1298 53.9706 42.9037 53.9088C42.6776 53.847 42.4834 53.7629 42.3166 53.6641C42.1498 53.5653 42.0103 53.4517 41.8938 53.3311C41.7772 53.2104 41.6836 53.0827 41.6083 52.9553C41.5331 52.828 41.4762 52.7011 41.4332 52.5823C41.3902 52.4635 41.3612 52.3526 41.3415 52.2574C41.3218 52.1622 41.3116 52.0826 41.3063 52.0262C41.3009 51.9698 41.3005 51.9366 41.3005 51.9341H38.7864C38.7864 52.1488 38.8068 52.3799 38.8494 52.6201C38.8921 52.8604 38.9569 53.1098 39.0458 53.3611C39.1346 53.6125 39.2475 53.8658 39.3861 54.1138C39.5247 54.3618 39.6891 54.6045 39.8811 54.8347C40.073 55.0648 40.2926 55.2825 40.5415 55.4804C40.7903 55.6783 41.0686 55.8564 41.3779 56.0076C41.6873 56.1587 42.0278 56.2829 42.4012 56.3728C42.7746 56.4627 43.1809 56.5185 43.6219 56.5327C43.6273 56.5327 43.6326 56.5328 43.638 56.5328C43.6434 56.5328 43.6487 56.5329 43.6541 56.5329C43.6595 56.533 43.6648 56.5331 43.6702 56.5331C43.6755 56.5332 43.6809 56.5333 43.6862 56.5333C43.6915 56.5334 43.6968 56.5335 43.7022 56.5336C43.7075 56.5336 43.7128 56.534 43.718 56.534C43.7233 56.534 43.7286 56.534 43.7339 56.534C43.7391 56.534 43.7443 56.534 43.7496 56.534C44.0546 56.534 44.3498 56.517 44.6339 56.4838C44.9181 56.4505 45.1912 56.4009 45.4522 56.3357C45.7132 56.2705 45.962 56.1897 46.1976 56.0939C46.4331 55.9981 46.6555 55.8872 46.8634 55.7621C47.0713 55.637 47.2648 55.4975 47.4429 55.3444C47.6209 55.1912 47.7834 55.0244 47.9293 54.8446C48.0752 54.6648 48.2045 54.4719 48.316 54.2667C48.4275 54.0615 48.5213 53.844 48.5961 53.6147C48.6493 53.4518 48.691 53.2867 48.7215 53.1201C48.752 52.9535 48.7713 52.7854 48.7799 52.6163C48.7884 52.4472 48.7861 52.2771 48.7732 52.1067C48.7604 51.9363 48.737 51.7655 48.7035 51.5949C48.6699 51.4243 48.6261 51.2538 48.5725 51.0842C48.5188 50.9145 48.4553 50.7457 48.3821 50.5781C48.309 50.4106 48.2263 50.2444 48.1343 50.0801C48.0424 49.9158 47.9411 49.7534 47.831 49.5936C48.0134 49.4035 48.1836 49.2146 48.3415 49.0266C48.4994 48.8387 48.6451 48.6518 48.7785 48.4657C48.912 48.2797 49.0333 48.0945 49.1424 47.9101C49.2515 47.7257 49.3485 47.542 49.4333 47.3589C49.5181 47.1759 49.5908 46.9934 49.6514 46.8115C49.712 46.6295 49.7606 46.448 49.797 46.2669C49.8335 46.0858 49.8579 45.9051 49.8704 45.7245C49.8828 45.544 49.8832 45.3637 49.8716 45.1835ZM44.7808 46.8703C44.259 46.494 43.7446 46.1229 43.265 45.7567C42.7855 45.3906 42.3408 45.0294 41.9586 44.673C41.5765 44.3166 41.2568 43.965 41.0272 43.6181C40.7976 43.2711 40.6582 42.9287 40.6364 42.5909C40.6256 42.42 40.6463 42.24 40.6973 42.0514C40.7484 41.8627 40.8298 41.6654 40.9406 41.46C41.0513 41.2545 41.1914 41.0409 41.3598 40.8197C41.5281 40.5985 41.7248 40.3696 41.9487 40.1337C41.9527 40.1365 41.9565 40.1395 41.9603 40.1426C41.964 40.1456 41.9677 40.1487 41.9713 40.1518C41.975 40.1549 41.9786 40.158 41.9824 40.1611C41.9862 40.1641 41.99 40.1671 41.9941 40.17C42.0966 40.2464 42.1992 40.3222 42.3017 40.3975C42.4042 40.4728 42.5067 40.5476 42.609 40.6219C42.7112 40.6963 42.8133 40.7702 42.9151 40.8438C43.0168 40.9174 43.1183 40.9907 43.2192 41.0637C43.741 41.44 44.2554 41.8111 44.735 42.1772C45.2145 42.5434 45.6592 42.9046 46.0413 43.261C46.4235 43.6174 46.7432 43.969 46.9728 44.3159C47.2024 44.6629 47.3418 45.0052 47.3636 45.3431C47.3744 45.514 47.3537 45.694 47.3027 45.8826C47.2516 46.0713 47.1702 46.2686 47.0594 46.474C46.9487 46.6795 46.8086 46.8931 46.6402 47.1143C46.4719 47.3355 46.2752 47.5644 46.0513 47.8003C46.0473 47.7975 46.0435 47.7945 46.0397 47.7914C46.036 47.7884 46.0323 47.7853 46.0287 47.7822C46.025 47.779 46.0214 47.7759 46.0176 47.7729C46.0138 47.7698 46.01 47.7668 46.0059 47.764C45.9034 47.6876 45.8008 47.6117 45.6983 47.5365C45.5958 47.4612 45.4933 47.3864 45.391 47.3121C45.2887 47.2377 45.1867 47.1638 45.0849 47.0902C44.9832 47.0166 44.8817 46.9433 44.7808 46.8703Z" fill="white"/>
</svg>

<svg xmlns="http://www.w3.org/2000/svg" width="88" height="88" fill="none" xmlns:v="https://vecta.io/nano"><circle cx="43.726" cy="43.726" r="43.726" fill="#95227d"/><g fill="#fff"><path d="M28.25 28.25A5.25 5.25 0 0 1 33.5 23h21a5.25 5.25 0 0 1 5.25 5.25v31.5A5.25 5.25 0 0 1 54.5 65h-21a5.25 5.25 0 0 1-5.25-5.25v-31.5zm26.25-2.625h-21c-.696 0-1.364.277-1.856.769s-.769 1.16-.769 1.856v31.5c0 .696.277 1.364.769 1.856s1.16.769 1.856.769h21c.696 0 1.364-.277 1.856-.769s.769-1.16.769-1.856v-31.5c0-.696-.277-1.364-.769-1.856s-1.16-.769-1.856-.769z"/><path fill-rule="evenodd" d="M49.872 45.184c-.02-.317-.076-.622-.163-.917a4.63 4.63 0 0 0-.352-.854c-.146-.275-.319-.542-.515-.802a8.42 8.42 0 0 0-.654-.76l-.767-.728-.855-.707-.919-.696-.957-.695-.148-.107-.149-.108-.15-.109-.152-.11-.153-.111-.155-.113-.157-.115-.159-.117c-.187-.132-.357-.267-.511-.404s-.292-.274-.416-.412-.231-.276-.325-.413-.173-.273-.238-.406-.117-.264-.157-.391-.066-.251-.08-.369a1.67 1.67 0 0 1-.008-.34 1.33 1.33 0 0 1 .059-.302c.031-.095.072-.185.123-.27a1.36 1.36 0 0 1 .183-.237c.07-.074.151-.141.24-.204a2.01 2.01 0 0 1 .295-.169 2.63 2.63 0 0 1 .347-.133 3.47 3.47 0 0 1 .398-.096c.141-.026.29-.045.446-.058l.492-.019c.294.01.553.049.779.111s.421.146.587.245.306.212.423.333.21.248.286.376.132.254.175.373.072.23.092.325.03.175.035.231l.006.092h2.514a3.95 3.95 0 0 0-.063-.686 4.69 4.69 0 0 0-.196-.741c-.089-.251-.202-.505-.34-.753a4.73 4.73 0 0 0-.495-.721 4.54 4.54 0 0 0-.66-.646 4.56 4.56 0 0 0-.837-.527c-.309-.151-.65-.275-1.024-.365a6.03 6.03 0 0 0-1.221-.16h-.032-.032l-.032-.001h-.032a7.62 7.62 0 0 0-.884.05c-.284.033-.557.083-.818.148s-.51.146-.745.242-.458.207-.666.332a4.24 4.24 0 0 0-.58.418 3.91 3.91 0 0 0-.486.5 3.78 3.78 0 0 0-.387.578 3.89 3.89 0 0 0-.28.652 3.79 3.79 0 0 0-.125.495c-.031.167-.05.335-.058.504s-.006.339.007.51.036.341.07.512a4.73 4.73 0 0 0 .131.511c.054.17.117.338.19.506s.156.334.248.498l.303.486-.511.567-.437.561-.364.556-.291.551c-.085.183-.157.366-.218.547a4.58 4.58 0 0 0-.146.545 4.2 4.2 0 0 0-.073.542 4.07 4.07 0 0 0-.001.541c.02.317.076.622.163.917a4.63 4.63 0 0 0 .352.854c.146.275.319.542.515.802a8.42 8.42 0 0 0 .654.76l.767.728.855.707.919.696.957.695.148.107.149.108.15.109.151.11.153.111.155.113.157.115.159.117a6.01 6.01 0 0 1 .511.404c.154.136.292.274.416.412s.231.276.325.413a3.3 3.3 0 0 1 .238.406 2.66 2.66 0 0 1 .157.391c.039.127.066.251.08.369a1.68 1.68 0 0 1 .008.34 1.33 1.33 0 0 1-.059.302c-.031.095-.072.185-.124.27s-.112.164-.183.238-.151.142-.24.205-.188.119-.295.17-.223.095-.348.134-.257.07-.398.096a4.44 4.44 0 0 1-.445.056l-.491.016a3.36 3.36 0 0 1-.778-.111c-.226-.062-.42-.146-.587-.245s-.306-.212-.423-.333-.21-.248-.285-.376a2.22 2.22 0 0 1-.175-.373c-.043-.119-.072-.23-.092-.325s-.03-.175-.035-.231l-.006-.092h-2.514a3.95 3.95 0 0 0 .063.686c.043.24.107.49.196.741a4.87 4.87 0 0 0 .34.753 4.72 4.72 0 0 0 .495.721c.192.23.411.448.66.646a4.55 4.55 0 0 0 .836.527c.309.151.65.275 1.023.365s.78.146 1.221.16h.032.032l.032.001h.032a7.62 7.62 0 0 0 .884-.05c.284-.033.557-.083.818-.148s.51-.146.745-.242.458-.207.666-.332.401-.265.58-.418a3.91 3.91 0 0 0 .486-.5 3.78 3.78 0 0 0 .387-.578 3.89 3.89 0 0 0 .28-.652 3.79 3.79 0 0 0 .125-.495c.031-.167.05-.335.058-.504s.006-.339-.007-.51-.036-.341-.07-.512-.077-.341-.131-.511-.117-.339-.19-.506-.156-.334-.248-.498l-.303-.486.511-.567.437-.561.364-.556.291-.551c.085-.183.157-.365.218-.547a4.58 4.58 0 0 0 .146-.545c.037-.181.061-.362.073-.542a4.07 4.07 0 0 0 .001-.541zm-5.091 1.687l-1.516-1.114-1.306-1.084c-.382-.356-.702-.708-.931-1.055s-.369-.689-.391-1.027c-.011-.171.01-.351.061-.539s.133-.386.243-.591a4.92 4.92 0 0 1 .419-.64 8.35 8.35 0 0 1 .589-.686l.023.018.023.018.308.227.307.224.306.222.304.22 1.516 1.114 1.306 1.084c.382.356.702.708.931 1.055s.369.689.391 1.027c.011.171-.01.351-.061.539s-.133.386-.243.591a4.92 4.92 0 0 1-.419.64 8.35 8.35 0 0 1-.589.686l-.023-.018-.023-.018-.308-.228-.307-.224-.306-.222-.304-.22z"/></g></svg>
